X:143
T:Rakes of Clonmel
T:Ben Kelly's Delight
M:6/8
L:1/8
K:G
B|"Am"cBA "G"GED|"Am"EAA A2 B|cBA edc|"G"BGF Gef|
"C"gfg efg|"G"dBG Bcd|"Am"ecA "G"GED|"Am"EAA A2:|
a|"Am"aea ged|cAA A2 f|"G"gdg gdc|BGF GAB|
"C"cBc dcd|"Dm"edc Bcd|"Am"ecA "G"GED|"Am"EAA A2:|
G|"Am"A2 a aea|ged e2 f|"G"gfg age|dBG GAB|
"C"cBc dcd|"Dm"edc Bcd|"Am"ecA "G"GED|"Am"EAA A2:|
